X: 10722
T: 2. LORD McDONALD'S REEL
R: strathspey
N: Six Strathspeys and Reels Arranged by W.B. Laybourn
B: K\"ohler's Violin Repository, v.1, 1885 p.72 #2
F: http://www.archive.org/details/klersviolinrepos01edin
Z: 2012 John Chambers <jc:trillian.mit.edu>
M: C|
L: 1/8
K: G
|:\
vd3(e dB)gB | dBgB aAA2 | (Bc)de dBg2 | (Ac)BA (BG)G2 :|
v(DG)(BG) AGBG | (DG)(BG) AGEG | (DG)(BG) AGBG | (DE)DC B,G,G,2 |
dgbg agbg | dgbg a(geg) | (ba)gf (gf)ed | (ef)ga bg"_Fine."g2 |]

%%sep 2 1 500

